assets/img/braze_icons/sun-setting-01.svg

<svg fill="none" height="24" viewBox="0 0 24 24" width="24" xmlns="http://www.w3.org/2000/svg"><g fill="#801ed7"><path d="m12 2c.5523 0 1 .44772 1 1v2c0 .55228-.4477 1-1 1s-1-.44772-1-1v-2c0-.55228.4477-1 1-1z"/><path d="m4 19c0-.5523.44772-1 1-1h14c.5523 0 1 .4477 1 1s-.4477 1-1 1h-14c-.55228 0-1-.4477-1-1z"/><path d="m4.60701 5.1928c-.39052-.39053-1.02369-.39053-1.41421 0-.39053.39052-.39053 1.02369 0 1.41421l1.41421 1.41421c.39052.39053 1.02369.39053 1.41421 0 .39053-.39052.39053-1.02369 0-1.41421z"/><path d="m20.8071 5.1928c.3905.39052.3905 1.02369 0 1.41421l-1.4142 1.41421c-.3905.39053-1.0237.39053-1.4142 0-.3905-.39052-.3905-1.02369 0-1.41421l1.4142-1.41421c.3905-.39053 1.0237-.39053 1.4142 0z"/><path d="m5.07089 14c.48523-3.3923 3.40264-6 6.92911-6 3.5265 0 6.4439 2.6077 6.9291 6h3.0709c.5523 0 1 .4477 1 1s-.4477 1-1 1h-20c-.55228 0-1-.4477-1-1s.44772-1 1-1z"/></g></svg>

<svg width="24" height="24" viewBox="0 0 24 24" fill="none" xmlns="http://www.w3.org/2000/svg">
<path d="M12 2C12.5523 2 13 2.44772 13 3V5C13 5.55228 12.5523 6 12 6C11.4477 6 11 5.55228 11 5V3C11 2.44772 11.4477 2 12 2Z" fill="#801ED7"/>
<path d="M4 19C4 18.4477 4.44772 18 5 18H19C19.5523 18 20 18.4477 20 19C20 19.5523 19.5523 20 19 20H5C4.44772 20 4 19.5523 4 19Z" fill="#801ED7"/>
<path d="M4.60701 5.1928C4.21649 4.80227 3.58332 4.80227 3.1928 5.1928C2.80227 5.58332 2.80227 6.21649 3.1928 6.60701L4.60701 8.02122C4.99753 8.41175 5.6307 8.41175 6.02122 8.02122C6.41175 7.6307 6.41175 6.99753 6.02122 6.60701L4.60701 5.1928Z" fill="#801ED7"/>
<path d="M20.8071 5.1928C21.1976 5.58332 21.1976 6.21649 20.8071 6.60701L19.3929 8.02122C19.0024 8.41175 18.3692 8.41175 17.9787 8.02122C17.5882 7.6307 17.5882 6.99753 17.9787 6.60701L19.3929 5.1928C19.7834 4.80227 20.4166 4.80227 20.8071 5.1928Z" fill="#801ED7"/>
<path d="M5.07089 14C5.55612 10.6077 8.47353 8 12 8C15.5265 8 18.4439 10.6077 18.9291 14H22C22.5523 14 23 14.4477 23 15C23 15.5523 22.5523 16 22 16H2C1.44772 16 1 15.5523 1 15C1 14.4477 1.44772 14 2 14H5.07089Z" fill="#801ED7"/>
</svg>
